X:1
T:Title
%%score { ( 1 3 ) | ( 2 4 ) }
L:1/8
Q:1/4=106
M:4/4
K:Db
V:1 treble nm="Grand Piano"
V:3 treble 
V:2 bass 
V:4 bass 
V:1
 [F,D]3 [A,DF] [DFA][DFd][DAc][DGB] | [FA]3 G F2 z2 | GAB[EAc] [DAd]2 [DGB]2 | %3
w: M.~Villa * * * * *|||
 [DFA][DF] [=G,D]2 [A,CE]2 z2 | [F,D]3 [A,DF] [DFA][DFd][DAc][DGB] | [DFA]3 [CEG] [DF]2 [DFA]2 | %6
w: |||
 B2 d2 c2 A2 | [Fd]6 z2 | [FA]4 [Fd]2 [Af]2 | [Af]2 e2 e4 | A4 c2 e2 | [Ge]2 [Fd]2 [Fd]4 | %12
w: ||||||
 [DF]4 [FA]2 [Ad]2 | [Ac]2 B2 e2 d2 | c2 A2 B2 c2 | [Fd]6 z2 |] %16
w: ||||
V:2
 D,3 D, D,D,G,G, | A,2 z E [D,D]2 z2 | [G,B,][G,CG][G,DG]G, F,2 G,2 | z A, B,,2 A,,2 z2 | %4
 D,3 D, D,D,G,G, | A,3 A,, D,2 D,2 | [G,DG]2 [G,B,G]2 [A,E]2 [A,G]2 | [D,A,]6 z2 | %8
 [D,D]4 [D,A,]2 [D,D]2 | [G,B,]2 [G,B,G]2[K:treble] [G,B,G]4 | [A,CE]4 [A,EA]2 [A,CG]2 | %11
 [D,D]2 [D,A,]2 [D,A,]4 | [D,A,]4 [D,D]2 [F,D]2 | [G,E]2[K:treble] [G,DG]2 [G,B,G]2 [G,B,G]2 | %14
 [A,E]2 [A,CE]2 [A,DG]2 [A,EG]2 | [D,D]6 z2 |] %16
V:3
 x8 | D2 C2 z4 | x8 | x8 | x8 | x8 | x8 | x8 | x8 | x8 | x8 | x8 | x8 | x8 | x8 | x8 |] %16
V:4
 x8 | z2 A,,2 z4 | x8 | D,2 z2 z4 | x8 | x8 | x8 | x8 | x8 | x4[K:treble] x4 | x8 | x8 | x8 | %13
 x2[K:treble] x6 | x8 | x8 |] %16

